svgs/solid/bus-school.svg

<svg xmlns="http://www.w3.org/2000/svg" viewBox="0 0 512 512"><!--! Font Awesome Pro 6.2.0 by @fontawesome - https://fontawesome.com License - https://fontawesome.com/license (Commercial License) Copyright 2022 Fonticons, Inc. --><path d="M256 0C380.8 0 464 35.2 464 80V96v16h16c17.7 0 32 14.3 32 32v64c0 17.7-14.3 32-32 32H464v28.2c9.8 8.8 16 21.6 16 35.8v96c0 20.9-13.4 38.7-32 45.3V480c0 17.7-14.3 32-32 32H384c-17.7 0-32-14.3-32-32V448H160v32c0 17.7-14.3 32-32 32H96c-17.7 0-32-14.3-32-32V445.3c-18.6-6.6-32-24.4-32-45.3V304c0-14.2 6.2-27 16-35.8V240H32c-17.7 0-32-14.3-32-32V144c0-17.7 14.3-32 32-32H48V96 80C48 35.2 131.2 0 256 0zM112 160v64c0 17.7 14.3 32 32 32h96V128H144c-17.7 0-32 14.3-32 32zm160 96h96c17.7 0 32-14.3 32-32V160c0-17.7-14.3-32-32-32H272V256zM112 384c17.7 0 32-14.3 32-32s-14.3-32-32-32s-32 14.3-32 32s14.3 32 32 32zm288 0c17.7 0 32-14.3 32-32s-14.3-32-32-32s-32 14.3-32 32s14.3 32 32 32zM352 80c0-8.8-7.2-16-16-16H176c-8.8 0-16 7.2-16 16s7.2 16 16 16H336c8.8 0 16-7.2 16-16z"/></svg>

<svg xmlns="http://www.w3.org/2000/svg" viewBox="0 0 512 512"><!--! Font Awesome Pro 6.1.2 by @fontawesome - https://fontawesome.com License - https://fontawesome.com/license (Commercial License) Copyright 2022 Fonticons, Inc. --><path d="M256 0C380.8 0 464 35.2 464 80V112H480C497.7 112 512 126.3 512 144V208C512 225.7 497.7 240 480 240H464V268.2C473.8 277 480 289.8 480 304V400C480 420.9 466.6 438.7 448 445.3V480C448 497.7 433.7 512 416 512H384C366.3 512 352 497.7 352 480V448H160V480C160 497.7 145.7 512 128 512H96C78.33 512 64 497.7 64 480V445.3C45.36 438.7 32 420.9 32 400V304C32 289.8 38.18 277 48 268.2V240H32C14.33 240 0 225.7 0 208V144C0 126.3 14.33 112 32 112H48V80C48 35.2 131.2 0 256 0zM112 224C112 241.7 126.3 256 144 256H240V128H144C126.3 128 112 142.3 112 160V224zM272 256H368C385.7 256 400 241.7 400 224V160C400 142.3 385.7 128 368 128H272V256zM112 384C129.7 384 144 369.7 144 352C144 334.3 129.7 320 112 320C94.33 320 80 334.3 80 352C80 369.7 94.33 384 112 384zM400 384C417.7 384 432 369.7 432 352C432 334.3 417.7 320 400 320C382.3 320 368 334.3 368 352C368 369.7 382.3 384 400 384zM336 64H176C167.2 64 160 71.16 160 80C160 88.84 167.2 96 176 96H336C344.8 96 352 88.84 352 80C352 71.16 344.8 64 336 64z"/></svg>
